!!!!SEGMENT: pl-wumfc--r266--005_paderewski-ignacy-jan--tatra-album-andantino-quasi-allegretto.krn
!!!cenid: 18xx:3157
!!!COM: Paderewski, Ignacy Jan
!!!COM-rismID: pe30029943
!!!CDT: 1860/11/18-1941/06/29
!!!CNT: Polish
!!!GTL: Tatra Album
!!!OTL: Andantino quasi allegretto
!!!OMV: 005
!!!PDT:
!!!AGN:
!!!SMS-siglum: PL-Wumfc
!!!SMS-shelfmark: R266
!!!SMS-shelfwork: 001-005 G
!!!SMS-variant:
!!!SMS-altvar:
!!!NIFC-rismSourceID: 1001156225
!!!NIFC-rismChildID: 1001156306
!!!NIFC-islandoraID: pl-wumfc:309
!!!URL-pdf-islandora: https://repozytorium.nifc.pl/islandora/object/pl-wumfc%3A309/datastream/PDF/view
!!!URL-scan: https://polish.musicsources.pl/pl/lokalizacje/galeria/rekopisy/4686 @EN{Scan on Polish Music Sources Website} @PL{Skany w portalu Dziedzictwo Muzyki Polskiej w otwartym dostępie}
!!!ONB-nifc: UWAGA: zbiór zawiera utwory na 4 ręce numerowane I-VI. Nr 005 od skanu 0017
!!!AIN: 4 piano
!!!key: A
**kern	**kern	**fing	**dynam	**kern	**fing	**kern	**fing	**dynam
*group2	*group2	*	*	*group1	*	*group1	*	*
*part4	*part3	*part 3	*part3	*part2	*part2	*part1	*part1	*part1
*staff4	*staff3	*	*	*staff2	*	*staff1	*	*
*I"[Clavier]	*I"[Clavier]	*	*	*I"[Clavier]	*	*I"[Clavier]	*	*
*mI"Pianoforte II	*mI"Pianoforte II	*	*	*mI"Pianoforte I	*	*mI"Pianoforte I	*	*
*Ipiano	*Ipiano	*	*	*Ipiano	*	*Ipiano	*	*
*ICklav	*ICklav	*	*	*ICklav	*	*ICklav	*	*
*clefF4	*clefF4	*	*	*clefG2	*	*clefG2	*	*
*k[f#c#g#]	*k[f#c#g#]	*	*	*k[f#c#g#]	*	*k[f#c#g#]	*	*
*A:	*A:	*	*	*A:	*	*A:	*	*
*M3/4	*M3/4	*	*	*M3/4	*	*M3/4	*	*
=1	=1	=1	=1	=1	=1	=1	=1	=1
!!LO:TX:t=P:problem:4,8\left or right
!	!LO:TX:a:B:t=Allegretto.:mod=Allegretto	!	!	!	!	!LO:TX:a:B:t=Allegretto	!	!LO:DY:b:rj:t=mf.
!	!LO:TX:b:t=3:color=grey:mod=	!	!	!	!	!	!	!
2.r	2.r	.	.	(>4b\ 4e\	.	(>4gg#\ 4g#\	.	mf
.	.	.	.	2f# 2B\)	.	2dd\)	.	.
=2	=2	=2	=2	=2	=2	=2	=2	=2
2.r	2.r	.	.	(>4b 4e\	.	(>4gg#\ 4g#\	.	.
*	*	*	*	*2\right	*	*	*	*
.	.	.	.	2f# 2B\)	.	2dd\)	.	.
=3	=3	=3	=3	=3	=3	=3	=3	=3
*	*	*	*	*	*	*	*	*
!	!	!	!	!LO:TX:b:i:t=Due pedale.:mod=due Pedale	!	!	!	!LO:DY:b:t=pp.
2.r	2.r	.	.	(>4b 4e\	.	(>4gg#\ 4g#\	.	pp
.	.	.	.	4f# 4B\	.	4dd\	.	.
.	.	.	.	4b 4e\	.	4gg#\ 4g#\	.	.
=4	=4	=4	=4	=4	=4	=4	=4	=4
2.r;>	2.r;>	.	.	4f# 4B\	.	4dd\	.	.
!	!LO:TX:a:i:t= :mod=[ritard.]	!	!	!	!	!LO:MO:mod=!LO&colon;TX&colon;a&colon;i&colon;t=ritard.	!	!
!	!LO:TX:a:i:t= :mod=[lunga]	!	!	!	!	!LO:TX:b:i:t=ritar.	!	!
.	.	.	.	4b 4e\	.	4gg#\ 4g#\	.	.
!	!	!	!	!	!	!LO:TX:a:i:t=lunga fer.:mod=lunga	!	!
.	.	.	.	4f# 4B;>\)	.	4dd;>\)	.	.
*	*	*	*	*Xped	*	*	*	*
=5||	=5||	=5||	=5||	=5||	=5||	=5||	=5||	=5||
!	!LO:TX:a:B:t=Andantino quasi Allegretto:mod=Andantino quasi allegretto	!	!LO:DY:b:t=p.	!	!	!LO:TX:a:B:t=Andantino quasi allegretto.:mod=Andantino quasi allegretto	!	!
4BB\	2.d 2.G# 2.E\	.	p	2.r	.	(>8e/L	.	.
!	!	!	!	!	!	!LO:TX:b:i:t=espressivo	!	!LO:HP:b
.	.	.	.	.	.	8f#/J	.	<
4EE\	.	.	.	.	.	4.g#/	.	.
4BB\	.	.	.	.	.	.	.	.
.	.	.	.	.	.	8e/	.	.
=6	=6	=6	=6	=6	=6	=6	=6	=6
(>4AA\	2c# 2A 2E\	.	.	2.r	.	8a/L	.	.
.	.	.	.	.	.	8b/J	.	.
2EE\)	.	.	.	.	.	4cc#\	.	.
.	[>4d [>4A [<4F#\	.	.	.	.	4dd\)	.	[[
!!LO:LB:g=original
=7	=7	=7	=7	=7	=7	=7	=7	=7
!	!LO:TX:t=P:problem=brak zakończenia ligatur	!	!	!	!	!	!	!
(>2BB\	2.d\] 2.A\] 2.F#\]	.	.	2.ryy	.	(>4b\	.	.
.	.	.	.	.	.	2f#^</	.	.
4EE\)	.	.	.	.	.	.	.	.
=8	=8	=8	=8	=8	=8	=8	=8	=8
2BB\	2.d\ 2.G#\ 2.E\	.	.	2.ryy	.	4g#/	.	.
.	.	.	.	.	.	2e^>/)	.	.
[<4EE\	.	.	.	.	.	.	.	.
=9	=9	=9	=9	=9	=9	=9	=9	=9
!	!	!	!	!	!	!	!	!LO:HP:b
4EE\]	2.c#\ 2.A\ 2.E\	.	.	2.ryy	.	(>8a/L	.	<
.	.	.	.	.	.	8b/J	.	.
4AA\	.	.	.	.	.	4.cc#\	.	.
4EE\	.	.	.	.	.	.	.	.
.	.	.	.	.	.	8dd\	.	[[
=10	=10	=10	=10	=10	=10	=10	=10	=10
2BB\	2.d\ 2.A\ 2.F#\	.	.	2.ryy	.	4b\	.	.
.	.	.	.	.	.	2f#/	.	.
4EE\	.	.	.	.	.	.	.	.
=11	=11	=11	=11	=11	=11	=11	=11	=11
4BB\	4d\ 4G#\ 4E\	.	.	2.ryy	.	4e/	.	.
!	!LO:MO:mod=!LO&colon;TX&colon;a&colon;i&colon;t=rit.	!	!	!	!	!LO:MO:mod=!LO&colon;TX&colon;a&colon;i&colon;t=rit.	!	!
!	!LO:TX:b:i:t=rit	!	!	!	!	!LO:TX:b:i:t=rit.	!	!
[>4AA\	2c#\ 2A\ 2E\	.	.	.	.	2a/)	.	.
4AA\] 4AAA\	.	.	.	.	.	.	.	.
=12||	=12||	=12||	=12||	=12||	=12||	=12||	=12||	=12||
!	!LO:TX:a:B:t= :mod=[Tempo I]	!	!	!	!	!LO:TX:a:B:t=Tempo I°:mod=Tempo I	!	!LO:MO:null:mod=mf
2.r	2.r	.	.	(>4ccn\ 4fn\	.	(>4aa\ 4a\	.	.
*	*	*	*	*2\left	*	*	*	*
!	!LO:TX:b:t=3:color=grey:mod=	!	!	!	!	!	!	!LO:DY:b:rj:t=mf.
!	!	!	!	!	!	!	!	!LO:MO:mod=.
.	.	.	.	2gn\ 2cn\)	.	2ee-X\)	.	mf
!!LO:LB:g=original
=13	=13	=13	=13	=13	=13	=13	=13	=13
2.r	2.r	.	.	(>4ccn\ 4fn\	.	(>4aa\ 4a\	.	.
*	*	*	*	*2\right	*	*	*	*
.	.	.	.	2gn\ 2cn\)	.	2ee-X\)	.	.
=14	=14	=14	=14	=14	=14	=14	=14	=14
*	*	*	*	*	*	*	*	*
!	!	!	!	!LO:TX:b:i:t=Due pedale.:mod=due Pedale	!	!LO:SIC:s=(4aa\ 4a\	!	!LO:DY:b:t=pp.
!	!	!	!	!LO:SIC:s=(4ccn\ 4fn\	!	!	!	!
2.r	2.r	.	.	4ccn\ 4fn\	.	4aa\ 4a\	.	pp
.	.	.	.	4gn\ 4cn\	.	4ee-X\	.	.
.	.	.	.	4cc\ 4f\	.	4aa\ 4a\	.	.
=15	=15	=15	=15	=15	=15	=15	=15	=15
!	!	!	!	!	!	!LO:MO:mod=!LO&colon;TX&colon;a&colon;i&colon;t=ritard.	!	!
!	!LO:TX:a:i:t= :mod=[ritar.]	!	!	!	!	!LO:TX:b:i:t=ritar.	!	!
2.r;>	2.r;>	.	.	4gn\ 4cn\	.	4ee-X\	.	.
.	.	.	.	4ccn 4fn\	.	4aa\ 4a\	.	.
!	!	!	!	!LO:SIC:s=4g\ 4c;>\)	!	!LO:SIC:s=4ee-;>\)	!	!
.	.	.	.	4g\ 4c;>\	.	4ee-;>\	.	.
*	*	*	*	*Xped	*	*	*	*
=16	=16	=16	=16	=16	=16	=16	=16	=16
*	*	*	*	*	*	*	*	*^
!	!	!	!	!	!	!LO:MO:mod=!LO&colon;TX&colon;a&colon;B&colon;t=Tempo II	!	!	!
!	!LO:TX:a:B:t= :mod=[Tempo II]	!	!	!	!	!LO:TX:a:i:t=a Tempo:mod=	!	!LO:DY:b:t=mf.	!
4BB\	2.d 2.G# 2.E\	.	.	(<8e/L	.	(>8een\L	.	mf	.
.	.	.	.	8f#/J	.	8ff#\J	.	<	.
4EE\	.	.	.	4.g#/	.	4.gg#\	.	.	.
4BB\	.	.	.	.	.	.	.	.	.
.	.	.	.	8e/	.	8ee\	.	.	.
=17	=17	=17	=17	=17	=17	=17	=17	=17	=17
4AA\	2c# 2A 2E\	.	.	8a/L	.	8aa\L	.	.	.
.	.	.	.	8b/J	.	8bb\J	.	.	.
!	!	!	!	!	!	!	!	!	!LO:MO:mod=!LO&colon;HP&colon;b&colon;t=molto cresc.
!	!	!	!	!	!	!	!	!	!LO:HP:t=molto cres.
2EE\	.	.	.	4cc#\	.	4ccc#\	.	.	<
.	4d\ 4A\ 4F#\	.	.	4dd\)	.	4ddd\)	.	[	.
*	*	*	*	*	*	*	*	*v	*v
=18	=18	=18	=18	=18	=18	=18	=18	=18
2BB\	2.d 2.A 2.F#\	.	.	(>4b\	.	(>4bb\	.	.
!	!	!	!	!LO:SIC:s=2f#^/	!	!	!	!
.	.	.	.	2f#/	.	2ff#^>\	.	.
4EE\	.	.	.	.	.	.	.	.
!!LO:LB:g=original
=19	=19	=19	=19	=19	=19	=19	=19	=19
!	!	!	!	!	!	!	!	!LO:HP:b
2BB\	2.d\ 2.G#\ 2.E\	.	.	4g#/	.	4gg#\	.	>
.	.	.	.	2e^>/)	.	2ee^>\)	.	]
[<4EE\	.	.	.	.	.	.	.	.
=20	=20	=20	=20	=20	=20	=20	=20	=20
*	*	*	*	*	*	*	*	*^
!	!	!	!	!	!	!	!	!LO:HP:b	!
4EE\]	2.c#\ 2.A\ 2.E\	.	.	(>8a\L	.	(>8aa\L	.	<	.
.	.	.	.	8b\J	.	8bb\J	.	.	.
4AA\	.	.	.	4cc#\	.	4ccc#\	.	.	.
!	!	!	!	!	!	!	!	!	!LO:MO:mod=!LO&colon;HP&colon;b&colon;t=molto cresc.
!	!	!	!	!	!	!	!	!	!LO:HP:t=molto cres.
4EE\	.	.	.	4dd\	.	4ddd\	.	[	<
*	*	*	*	*	*	*	*	*v	*v
=21	=21	=21	=21	=21	=21	=21	=21	=21
2BB\	2.d\ 2.A\ 2.F#\	.	.	4b\	.	4bb\	.	.
!	!	!	!	!LO:SIC:s=2f#^/	!	!LO:SIC:s=2ff#^\	!	!LO:HP:b
.	.	.	.	2f#/	.	2ff#\	.	>
4EE\	.	.	.	.	.	.	.	.
=22	=22	=22	=22	=22	=22	=22	=22	=22
4BB\	4d\ 4G#\ 4E\	.	.	4e/	.	4ee\	.	.
!	!LO:MO:mod=!LO&colon;TX&colon;a&colon;i&colon;t=rit.	!	!	!	!	!LO:MO:mod=!LO&colon;TX&colon;a&colon;i&colon;t=rit.	!	!
!	!LO:TX:b:i:t=rit.	!	!	!	!	!LO:TX:b:i:t=rit.	!	!
[>4AA\	2c#\ 2A\ 2E\	.	.	2a/)	.	2aa\)	.	]]
4AA\] 4AAA\	.	.	.	.	.	.	.	.
=23||	=23||	=23||	=23||	=23||	=23||	=23||	=23||	=23||
*	*	*	*	*	*	*	*^	*
!LO:TX:t=P:problem:dot.color=blue	!LO:TX:a:B:t=Allegro feroce.:mod=Allegro feroce	!	!	!	!	!LO:TX:a:B:t=Allegro feroce	!	!	!
[>2.EE [<2.EEE\	4r	.	.	4r	.	4r	.	.	.
!	!	!	!LO:DY:b:rj	!LO:TX:t=P:problem=problem z łukami pomiędzy pięcioliniami	!	!	!	!	!LO:DY:b:rj
.	(>8BB\L	1	ff	N(>8B/L	4	4r	.	.	ff
!	!	!	!LO:HP:b	!	!	!	!	!	!
.	8E\	2	<	8e/J	2	.	.	.	.
!	!	!	!	!	!	!	!	!LO:MO:null:mod=*above	!
*	*	*	*	*	*	*	*	*	*
.	8G#\	3	.	4r	.	8g#/L	.	2	.
!	!	!	!	!	!	!LO:TX:b:i:t=legato.:mod=legato	!	!	!LO:HP:b
.	8A#X\J	4	.	.	.	8a#X/J	.	3	<
*	*	*	*	*	*	*	*v	*v	*
=24	=24	=24	=24	=24	=24	=24	=24	=24
!LO:MO:mod=!null:null	!	!	!	!	!	!	!	!
!LO:N:vis=2	!	!	!	!	!	!	!	!
2.EE_> 2.EEE\_<	8B\L	.	.	2.r	.	8b\L	1	.
.	8e\	.	.	.	.	8ee\	2	.
.	8g#\	.	.	.	.	8gg#\	3	.
.	8a#X\J	.	[	.	.	8aa#X\J	4	.
.	4b^>\)	.	.	.	.	4bb^>\N)	5	[
!!LO:LB:g=original
=25	=25	=25	=25	=25	=25	=25	=25	=25
!LO:MO:mod=!null:null	!	!	!	!	!	!	!	!
!LO:N:vis=2	!	!	!	!	!	!	!	!
2.EE_> 2.EEE\_<	(>8a#X\L	.	.	2.r	.	N(8aa#X\L	.	.
!	!	!	!LO:DY:b	!	!	!	!	!
.	8b\	.	ff	.	.	8bb\	.	.
!	!	!	!	!	!	!	!	!LO:DY:b
.	8a#\	.	.	.	.	8aa#\	.	ff
.	8g#\	.	.	.	.	8gg#\	.	.
.	8f#\	.	.	.	.	8ff#\	.	.
.	8B\J	.	.	.	.	8b\J	.	.
=26	=26	=26	=26	=26	=26	=26	=26	=26
!LO:N:vis=2	!	!	!	!	!	!	!	!
2.EE] 2.EEE\]	8A#X\L	.	.	2ryy	.	8a#X/L	.	.
.	8B\	.	.	.	.	8b/	.	.
.	8A#\	.	.	.	.	8a#/	.	.
.	8G#\	.	.	.	.	8g#/J	.	.
.	8F#\	.	.	8f#/L	.	4r	.	.
!	!	!	!LO:HP:b	!	!	!	!	!
.	8BB\J)	.	<	8B/JN)	.	.	.	.
=27	=27	=27	=27	=27	=27	=27	=27	=27
*	*	*	*	*	*	*	*	*^
!LO:N:vis=2	!LO:TX:b:i:t=con forza	!	!	!LO:SIC:v:s=2.d#/	!	!	!	!LO:DY:a	!LO:DY:b
2.BBB^>\	(>8F#L 8D#X\	.	.	2.d/	.	2.f#/	.	sf	sf
.	8C#\	.	.	.	.	.	.	.	.
.	8E\	.	[	.	.	.	.	.	.
.	8D#\	.	.	.	.	.	.	.	.
!	!	!	!LO:HP:b	!	!	!	!	!	!
.	8C#\	.	>	.	.	.	.	.	.
.	8D#\J)	.	]]	.	.	.	.	.	.
*	*	*	*	*	*	*	*	*v	*v
=28	=28	=28	=28	=28	=28	=28	=28	=28
!LO:TX:t=P:problem:dot.color=blue	!	!	!	!	!	!	!	!LO:DY:b
!	!	!	!	!	!	!	!	!LO:MO:mod=.
[>2.EE [<2.EEE\	4C#m>\	.	.	4r	.	4r	.	ff
!	!	!	!LO:HP:b	!	!	!	!	!LO:MO:null:mod=ff
.	(>8BB\L	.	<	N(>8B/L	.	4r	.	.
.	8E\	.	.	8e/J	.	.	.	.
!	!	!	!	!	!	!LO:TX:b:i:t=legato	!	!
.	8G#\	.	.	4r	.	8g#/L	.	.
.	8A#X\J	.	.	.	.	8a#X/J	.	.
=29	=29	=29	=29	=29	=29	=29	=29	=29
*	*clefG2	*	*	*	*	*	*	*
!LO:N:vis=2	!	!	!	!	!	!	!	!LO:HP:b
2.EE_> 2.EEE\_<	8B/L	.	.	2.ryy	.	8b\L	.	<
.	8e/	.	[	.	.	8ee\	.	.
.	8g#/	.	.	.	.	8gg#\	.	.
.	8a#X/J	.	.	.	.	8aa#X\J	.	.
.	4b^>/)	.	.	.	.	4bb^>\N)	.	[
=30	=30	=30	=30	=30	=30	=30	=30	=30
!LO:MO:mod=!null:null	!	!	!	!	!	!	!	!
!LO:N:vis=2	!	!	!LO:DY:b	!	!	!	!	!
2.EE_> 2.EEE\_<	(<8a#X/L	.	ff	2.r	.	N(>8aa#X\L	.	.
!	!	!	!	!	!	!	!	!LO:DY:b
.	8b/	.	.	.	.	8bb\	.	ff
.	8a#/	.	.	.	.	8aa#\	.	.
.	8g#/	.	.	.	.	8gg#\	.	.
.	8f#/	.	.	.	.	8ff#\	.	.
.	8B/J	.	.	.	.	8b\J	.	.
!!LO:LB:g=original
=31	=31	=31	=31	=31	=31	=31	=31	=31
!	!LO:CL:ed	!	!	!	!	!	!	!
*	*clefF4	*	*	*	*	*	*	*
!LO:MO:mod=!null:null	!	!	!	!	!	!	!	!
!LO:N:vis=2	!LO:TX:t=P:problem=łuk kończy się od góry, zaczyna od dołu	!	!	!	!	!	!	!
2.EE\] 2.EEE\]	8A#X\L	.	.	2ryy	.	8a#X/L	.	.
.	8B\	.	.	.	.	8b/	.	.
.	8A#\	.	.	.	.	8a#/	.	.
.	8G#\	.	.	.	.	8g#/J	.	.
.	8F#\	.	.	8f#/L	.	4r	.	.
.	8BB\J)	.	.	8B/JN)	.	.	.	.
=32	=32	=32	=32	=32	=32	=32	=32	=32
*	*	*	*	*	*	*	*	*^
!LO:MO:mod=!null:null	!	!	!	!	!	!	!	!	!
!LO:N:vis=2	!	!	!LO:HP:b	!LO:SIC:v:s=2.d#/	!	!	!	!LO:DY:a	!LO:MO:mod=.
!LO:SIC:s=2.BBB^\	!	!	!	!	!	!	!	!	!
2.BBB\	(>8F#\L 8D#X\	.	<	2.d/	.	2.ff# 2.f#\	.	sf	sf
.	8C#\	.	.	.	.	.	.	.	.
.	8E\	.	.	.	.	.	.	.	.
.	8D#\	.	[	.	.	.	.	.	.
!	!	!	!LO:HP:b	!	!	!	!	!	!
.	8C#\	.	>	.	.	.	.	.	.
.	8D#\J)	.	]]	.	.	.	.	.	.
*	*	*	*	*	*	*	*	*v	*v
=33	=33	=33	=33	=33	=33	=33	=33	=33
!	!LO:TX:a:i:t=risoluto	!	!	!	!	!LO:TX:a:i:t=Con forza.:mod=con forza	!	!
!	!	!	!LO:MO:null:mod=f	!LO:MO:mod=(<8.e/L	!	!LO:TX:b:i:t= :mod=risoluto	!	!
4EE\	4G#:\ 4E:\ 4BB:\	.	.	(>8.e/L	.	(>8.ee\L	.	.
!	!	!	!	!	!	!LO:TX:b:i:t=risoluto.:mod=	!	!
.	.	.	.	16g#/Jk	.	16gg#\Jk	.	.
!	!	!	!LO:DY:b:rj:t=f.	!	!	!	!	!
!	!	!	!LO:MO:mod=.	!	!	!	!	!
4EE\	4G#\ 4E\ 4BB\	.	f	4a#X/	.	4aa#X\	.	.
!	!	!	!	!LO:MO:mod=4b^/	!	!	!	!
4EE^>\	4G#\ 4E\ 4BB^>\	.	.	4b^>/	.	4bb^>\	.	.
=34	=34	=34	=34	=34	=34	=34	=34	=34
!	!LO:SIC:v:s=4F#\ 4D#\ 4BB\	!	!	!	!	!	!	!
4EE\	4F#\ 4D\ 4BB\	.	.	8a#X/L	.	8aa#X\L	.	.
.	.	.	.	8b/	.	8bb\	.	.
!	!LO:SIC:v:s=4F#\ 4D#\ 4BB\	!	!	!	!	!	!	!
4EE\	4F#\ 4D\ 4BB\	.	.	8a#/	.	8aa#\	.	.
.	.	.	.	8g#/J	.	8gg#\J	.	.
4EE\ 4EEE^>\	4B\ 4A\ 4BB^>\	.	.	4f#^>/)	.	4ff#^>\)	.	.
=35	=35	=35	=35	=35	=35	=35	=35	=35
!	!	!	!	!LO:MO:mod=(<8.e/L	!	!	!	!
4EE\	4B\ 4G#\ 4BB\	.	.	(>8.e/L	.	(>8.ee\L	.	.
.	.	.	.	16g#/Jk	.	16gg#\Jk	.	.
4EE\	4G#\ 4E\ 4BB\	.	.	4a#X/	.	4aa#X\	.	.
!	!	!	!	!LO:MO:mod=4b^/	!	!	!	!
4EE^>\	4G#\ 4E\ 4BB^>\	.	.	4b^>/	.	4bb^>\	.	.
=36	=36	=36	=36	=36	=36	=36	=36	=36
!	!LO:SIC:v:s=4F#\ 4D#\ 4BB\	!	!	!	!	!	!	!
4EE\	4F#\ 4D\ 4BB\	.	.	8a#X/L	.	8aa#X\L	.	.
.	.	.	.	8b/	.	8bb\	.	.
!	!LO:SIC:v:s=4F#\ 4D#\ 4BB\	!	!	!	!	!	!	!
4EE\	4F#\ 4D\ 4BB\	.	.	8a#/	.	8aa#\	.	.
.	.	.	.	8g#/J	.	8gg#\J	.	.
!LO:SIC:v:s=4EEE\ 4GGG#^>\	!	!	!	!	!	!	!	!
4EE\ 4GGG#^>\	4B\ 4A\ 4BB^>\	.	.	4f#^>/)	.	4ff#^>\)	.	.
!!LO:PB:g=original
=37	=37	=37	=37	=37	=37	=37	=37	=37
!	!	!	!	!LO:SIC:s=(8.e/L	!	!	!	!
4EE\	4B\ 4G#\ 4BB\	.	.	8.e/L	.	(>8.ee\L	.	.
.	.	.	.	16g#/Jk	.	16gg#\Jk	.	.
4EE\	4G#\ 4E\ 4BB\	.	.	4a#X/	.	4aa#X\	.	.
!LO:SIC:s=4EE^\	!	!	!	!LO:MO:mod=4b^/	!	!	!	!
4EE\	4G#\ 4E\ 4BB^>\	.	.	4b^>/	.	4bb^>\	.	.
=38	=38	=38	=38	=38	=38	=38	=38	=38
!	!LO:SIC:v:s=4F#\ 4D#\ 4BB\	!	!	!	!	!	!	!
4EE\	4F#\ 4D\ 4BB\	.	.	4f#/	.	4ff#\	.	.
!	!LO:MO:mod=!LO&colon;TX&colon;a&colon;i&colon;t=rit.	!	!	!	!	!LO:MO:mod=!LO&colon;TX&colon;a&colon;i&colon;t=rit.	!	!
!	!LO:TX:b:i:t=rit.	!	!	!	!	!LO:TX:b:i:t=rit	!	!
4EE\ 4EEE\	4B\ 4A\ 4BB\	.	.	8g#/L	.	8gg#\L	.	.
.	.	.	.	8d#X/J	.	8dd#X\J	.	.
!	!	!	!	!LO:SIC:s=4e/)	!	!	!	!
4EE\	4B\ 4G#\ 4BB\	.	.	4e/	.	4ee\)	.	.
=39	=39	=39	=39	=39	=39	=39	=39	=39
!	!LO:MO:mod=!LO&colon;TX&colon;a&colon;B&colon;t=Un poco più lento	!	!	!	!	!LO:MO:mod=!LO&colon;TX&colon;a&colon;B&colon;t=Un poco più lento	!	!
!	!LO:TX:a:t=Un poco piu lento:note=podkreślone	!	!	!	!	!LO:TX:b:t=Un poco piu lento	!	!LO:DY:a:t=m.f.
!	!	!	!LO:DY:b:t=p.	!LO:MO:mod=(<8.e/L	!	!	!	!LO:HP:b=2
(>2.CC#\	(>4c#\ 4G#\ 4E'>\	.	p	(>8.e/L	.	(>2.gg#\	.	mf < [[
.	.	.	.	16g#/Jk	.	.	.	.
!	!LO:TX:b:i:t=leggiero.:mod=leggiero	!	!	!	!	!	!	!
.	4c#\ 4G#\ 4E'>\	.	.	4a#X/	.	.	.	.
!	!	!	!	!LO:MO:mod=4b^/	!	!	!	!
.	4G#\ 4E'>\	.	.	4b/	.	.	.	.
=40	=40	=40	=40	=40	=40	=40	=40	=40
2.FF#\	4A#X\ 4F#\ 4C#'\	.	.	8a#X/L	.	4ff#\	.	.
.	.	.	.	8b/	.	.	.	.
!	!	!	!	!	!	!	!	!LO:HP:b=2
.	4A#\ 4F#\ 4C#'\	.	.	8a#/	.	2cc#\	.	>
.	.	.	.	8g#/J	.	.	.	.
.	4c#\ 4A#\ 4E'\)	.	.	4f#/)	.	.	.	]
=41	=41	=41	=41	=41	=41	=41	=41	=41
!	!	!	!	!LO:MO:mod=(<8.e/L	!	!	!	!LO:HP:b=2
2.CC#\	(4c#\ 4G#\ 4E\	.	.	(>8.e/L	.	2.ee\	.	<
.	.	.	.	16g#/Jk	.	.	.	.
.	4c#\ 4G#\ 4E\	.	.	4a#X/	.	.	.	.
!	!	!	!	!LO:MO:mod=4b^/	!	!	!	!
.	4c#\ 4G#\ 4E\	.	.	4b/	.	.	.	[[
=42	=42	=42	=42	=42	=42	=42	=42	=42
2FF#\	4c#\ 4G#\ 4E\	.	.	8a#X/L	.	4cc#\)	.	.
.	.	.	.	8b/	.	.	.	.
!	!	!	!	!	!	!	!	!LO:HP:b=2
.	4c#\ 4A#X\ 4F#\ 4E\	.	.	8a#/	.	(>4cc#\	.	>
.	.	.	.	8g#/J	.	.	.	.
!	!	!	!	!	!	!LO:SIC:s=4dd#X^\)	!	!
4BBB\)	4d#X\ 4B\ 4F#\ 4D#X^>\)	.	.	4f#/)	.	4dd#X\)	.	]]
!!LO:LB:g=original
=43	=43	=43	=43	=43	=43	=43	=43	=43
!	!	!	!LO:DY:b:t=p.	!	!	!	!	!
(>2FF#\	(>4c#\ 4A#X\ 4E\	.	p	(>8a#X/L	.	4cc#\	.	.
.	.	.	.	8b/	.	.	.	.
!	!LO:TX:b:i:t=strin-gen-do:dur=6q:ext=s:problem=text with extention lines	!	!	!	!	!LO:TX:b:i:t=strin-gen-do:dur=6q:ext=ud:problem=text with extention lines	!	!
.	4c#\ 4A#\ 4E\	.	.	8a#/	.	(>4cc#\	.	.
.	.	.	.	8g#/J	.	.	.	.
4BBB\)	4d#X\ 4B\ 4D#X^>\)	.	.	4f#^</)	.	4dd#X^>\)	.	.
=44	=44	=44	=44	=44	=44	=44	=44	=44
*2\right	*	*	*	*	*	*	*	*
(>2FF#\	(>4c#\ 4A#X\ 4E\	.	.	(>8a#X/L	.	4cc#\	.	.
.	.	.	.	8b/	.	.	.	.
.	4c#\ 4A#\ 4E\	.	.	8a#/	.	(>4cc#\	.	.
.	.	.	.	8g#/J	.	.	.	.
4BBB\)	4d#X\ 4B\ 4D#X^>\)	.	.	4f#^</)	.	4dd#X^>\)	.	.
=45	=45	=45	=45	=45	=45	=45	=45	=45
(>2FF#\	(>4c#\ 4A#X\ 4E\	.	.	(>8a#X/L	.	4cc#\	.	.
.	.	.	.	8b/	.	.	.	.
.	4c#\ 4A#\ 4E\	.	.	8a#/	.	(>4cc#\	.	.
.	.	.	.	8g#/J	.	.	.	.
!	!LO:MO:mod=!null:null	!	!	!	!	!	!	!
!	!LO:ACC:color=grey	!	!	!	!	!	!	!
!	!LO:SIC:s=4dn\ 4B\ 4Dn^\)	!	!	!	!	!	!	!
4BBB\)	4dn\ 4B\ 4Dn\)	.	.	4f#^</)	.	4ddn^>\)	.	.
=46	=46	=46	=46	=46	=46	=46	=46	=46
!	!LO:TX:i:a:t= :mod=rall.	!	!	!	!	!LO:MO:mod=!LO&colon;TX&colon;a&colon;i&colon;t=rall.	!	!
!	!LO:SIC:v:s=(>4c#\ 4A#\ 4E\	!	!	!	!	!LO:TX:b:i:t=rallentan.	!	!
(>2FF#\	(>4c#\ 4A\ 4E\	.	.	(>8a#X/L	.	4cc#\	.	.
.	.	.	.	8b/	.	.	.	.
!	!LO:TX:i:b:t=rallentan.:mod=	!	!	!	!	!	!	!
!	!LO:SIC:v:s=4c#\ 4A#\ 4E\	!	!	!	!	!	!	!
.	4c#\ 4A\ 4E\	.	.	8a#/	.	(>4cc#\	.	.
.	.	.	.	8g#/J	.	.	.	.
!	!LO:SIC:s=4d\ 4B\ 4D^\)	!	!	!	!	!	!	!
4BBB\)	4d\ 4B\ 4D\)	.	.	4f#^</)	.	4dd^>\)	.	.
=47	=47	=47	=47	=47	=47	=47	=47	=47
!	!LO:TX:a:B:t= :mod=[Tempo I]	!	!LO:DY:b:t=p.	!	!	!LO:TX:a:B:t=Tempo I°:mod=Tempo I	!	!
[>2.EE\	2.r	.	p	(>4b/ 4e/	.	(>4gg#\ 4g#\	.	.
.	.	.	.	2f#/ 2B^>/)	.	2dd^>\)	.	.
=48	=48	=48	=48	=48	=48	=48	=48	=48
!	!	!	!	!LO:SIC:s=(4b/ 4e/	!	!	!	!
2.EE\]	2.r	.	.	4b/ 4e/	.	(>4gg#\ 4g#\	.	.
!	!	!	!	!LO:SIC:s=2f#/ 2B^/)	!	!LO:SIC:s=2dd^\)	!	!
.	.	.	.	2f#/ 2B/	.	2dd\)	.	.
!!LO:LB:g=original
=49	=49	=49	=49	=49	=49	=49	=49	=49
!LO:SIC:s=(4B\ 4E\	!	!	!LO:DY:b:t=pp.	!LO:TX:b:i:t= :mod=due Pedale	!	!LO:TX:b:i:t=due pedale.:mod=	!	!
4B\ 4E\	(>4G#\	.	pp	4g#/	.	4gg#\	.	.
4F#\ 4BB\	4d\	.	.	4r	.	2ee\TT>	.	.
4B\ 4E\	4g#\ 4G#\	.	.	4r	.	.	.	.
=50	=50	=50	=50	=50	=50	=50	=50	=50
4F#\ 4BB\	4d\	.	.	2.r;>	.	4gg#\	.	.
4B\ 4E\	4g#\ 4G#\	.	.	.	.	2eeTT>;>\	.	.
!LO:SIC:s=4F#\ 4BB;>\)	!	!	!	!	!	!	!	!
4F#\ 4BB;>\	4d;\)	.	.	.	.	.	.	.
=51	=51	=51	=51	=51	=51	=51	=51	=51
!	!LO:TX:a:B:t=Andantino, quasi Allegretto.:mod=Andantino quasi Allegretto	!	!LO:DY:b:t=piano.	!	!	!LO:TX:a:B:t=Andantino, quasi allegretto.:mod=Andantino quasi allegretto	!	!
4BB\	2.d\ 2.B\ 2.G#\	.	p	(<8e/L	.	2.eeTTT>\	.	p
.	.	.	.	8f#/J	.	.	.	.
!	!	!	!	!LO:TX:a:i:t=marcato il canto.:mod=marcato il canto	!	!	!	!
4EE\	.	.	.	4.g#/	.	.	.	.
4BB\	.	.	.	.	.	.	.	.
.	.	.	.	8e/	.	.	.	.
=52	=52	=52	=52	=52	=52	=52	=52	=52
!	!LO:N:vis=2.	!	!	!	!	!	!	!
4AA\	2c#\ 2A\ 2E\	.	.	8a/L	.	2.ee\TTT>	.	.
.	.	.	.	8b/J	.	.	.	.
*2\left	*	*	*	*	*	*	*	*
2EE\	.	.	.	4cc#\	.	.	.	.
.	4d\ 4A\ 4F#\	.	.	4dd\)	.	.	.	.
=53	=53	=53	=53	=53	=53	=53	=53	=53
2BB\	2.d\ 2.A\ 2.F#\	.	.	(<4b/	.	[<4ee\TTT>	.	.
*	*	*	*	*	*	*Xtuplet	*	*
*	*	*	*	*	*	*cue	*	*
!	!	!	!	!	!	!LO:TX:t=P:problem:ósemki nie szesnastki	!	!LO:HP:b
!	!	!	!	!	!	!LO:MO:mod=(>28ee\L]	!	!LO:DY:b:t=pp.
.	.	.	.	2f#^>/)	.	(>28ee\L]	.	pp <
!	!	!	!	!	!	!LO:TX:b:i:t=veloce	!	!
.	.	.	.	.	.	28ff#\	.	.
.	.	.	.	.	.	28gg#\	.	.
.	.	.	.	.	.	28aa\	.	.
.	.	.	.	.	.	28bb\	.	.
.	.	.	.	.	.	28ccc#\	.	.
.	.	.	.	.	.	28ddd\	.	.
4EE\	.	.	.	.	.	28eee\	.	.
.	.	.	.	.	.	28ddd\	.	.
.	.	.	.	.	.	28ccc#\	.	.
.	.	.	.	.	.	28bb\	.	.
.	.	.	.	.	.	28aa\	.	.
.	.	.	.	.	.	28gg#\	.	.
.	.	.	.	.	.	28ff#\J)	.	.
=54	=54	=54	=54	=54	=54	=54	=54	=54
!	!	!	!	!	!	!LO:MO:mod=(>24ee\L	!	!
2BB\	2.d\ 2.G#\ 2.E\	.	.	(<4g#/	.	(>24ee\L	.	.
.	.	.	.	.	.	24ff#\	.	.
.	.	.	.	.	.	24gg#\	.	.
.	.	.	.	.	.	24aa\	.	.
.	.	.	.	.	.	24bb\	.	.
.	.	.	.	.	.	24ccc#\	.	.
.	.	.	.	2e/)	.	24ddd\	.	.
.	.	.	.	.	.	24eee\	.	.
.	.	.	.	.	.	24fff#\	.	.
.	.	.	.	.	.	24ggg#\	.	.
*	*	*	*	*	*	*8va	*	*
.	.	.	.	.	.	24aaa\	.	.
.	.	.	.	.	.	24bbb\	.	.
[>4EE\	.	.	.	.	.	24cccc#\	.	.
.	.	.	.	.	.	24dddd\	.	.
.	.	.	.	.	.	24eeee\	.	.
.	.	.	.	.	.	24dddd\	.	.
.	.	.	.	.	.	24cccc#\	.	.
.	.	.	.	.	.	24bbb\J	.	[[
*	*	*	*	*	*	*X8va	*	*
!!LO:LB:g=original
=55	=55	=55	=55	=55	=55	=55	=55	=55
!LO:TX:t=P:problem:zakończenie łuku dołem	!	!	!	!	!	!LO:MO:mod=20aaa\L	!	!LO:HP:b
4EE\]	2.c#\ 2.A\ 2.E\	.	.	(>8a\L	.	20aaa\L	.	>
.	.	.	.	.	.	20ggg#\	.	.
.	.	.	.	.	.	20fff#\	.	.
.	.	.	.	8b\J	.	.	.	.
.	.	.	.	.	.	20eee\	.	.
.	.	.	.	.	.	20ddd\	.	.
4AA\	.	.	.	4.cc#\	.	20ccc#\	.	.
.	.	.	.	.	.	20bb\	.	.
.	.	.	.	.	.	20aa\	.	.
.	.	.	.	.	.	20gg#\	.	.
.	.	.	.	.	.	20ff#\J	.	]
!	!	!	!	!	!	!LO:SIC:s=[4eeTT>\)	!	!
4EE\	.	.	.	.	.	4eeTT>\)	.	.
.	.	.	.	8dd\	.	.	.	.
=56	=56	=56	=56	=56	=56	=56	=56	=56
*2\right	*	*	*	*	*	*	*	*
!	!	!	!	!	!	!LO:SIC:s=[4ee\TTT>]	!	!
2BB\	2.d\ 2.A\ 2.F#\	.	.	4b/	.	4ee\TTT>	.	.
!	!	!	!	!	!	!LO:MO:mod=(>28ee\L]	!	!LO:HP:b
.	.	.	.	2f#^</	.	(>28ee\L	.	<
.	.	.	.	.	.	28ff#\	.	.
.	.	.	.	.	.	28gg#\	.	.
.	.	.	.	.	.	28aa\	.	.
.	.	.	.	.	.	28bb\	.	.
.	.	.	.	.	.	28ccc#\	.	.
.	.	.	.	.	.	28ddd\	.	.
4EE\	.	.	.	.	.	28eee\	.	.
.	.	.	.	.	.	28ddd\	.	[
.	.	.	.	.	.	28ccc#\	.	.
.	.	.	.	.	.	28bb\	.	.
!	!	!	!	!	!	!	!	!LO:HP:b
.	.	.	.	.	.	28aa\	.	>
.	.	.	.	.	.	28gg#\	.	.
.	.	.	.	.	.	28ff#\J)	.	.
=57	=57	=57	=57	=57	=57	=57	=57	=57
!	!	!	!	!	!	!LO:TX:b:i:t=veloce.:mod=veloce	!	!
!	!	!	!	!	!	!LO:MO:mod=(>24ee\L	!	!
4BB\	4d\ 4G#\ 4E\	.	.	4e/	.	(>24ee\L	.	.
.	.	.	.	.	.	24ff#\	.	.
!	!	!	!	!	!	!	!	!LO:HP:b
.	.	.	.	.	.	24gg#\	.	] <
.	.	.	.	.	.	24aa\	.	.
.	.	.	.	.	.	24bb\	.	.
.	.	.	.	.	.	24ccc#\	.	.
[>4AA\	2c#\ 2A\ 2E\	.	.	2a^>/)	.	24ddd\	.	.
.	.	.	.	.	.	24eee\	.	.
.	.	.	.	.	.	24fff#\	.	.
.	.	.	.	.	.	24ggg#\	.	.
*	*	*	*	*	*	*8va	*	*
.	.	.	.	.	.	24aaa\	.	.
.	.	.	.	.	.	24bbb\	.	.
4AA\] 4AAA\	.	.	.	.	.	24cccc#\	.	.
.	.	.	.	.	.	24dddd\	.	.
.	.	.	.	.	.	24eeee\	.	.
!	!LO:TX:a:i:t= :mod=[rit.]	!	!	!	!	!LO:TX:a:i:t= :mod=rit.	!	!
.	.	.	.	.	.	24ffff#\	.	.
.	.	.	.	.	.	24gggg#\	.	.
!	!	!	!	!	!	!LO:TX:b:i:t=rit.:mod=	!	!
.	.	.	.	.	.	24aaaa^\J)	.	[
*	*	*	*	*	*	*Xcue	*	*
*	*	*	*	*	*	*X8va	*	*
=58||	=58||	=58||	=58||	=58||	=58||	=58||	=58||	=58||
*	*	*	*	*	*	*	*^	*
*2\left	*	*	*	*	*	*	*	*	*
!	!LO:TX:a:B:t=Allegro feroce.:mod=Allegro feroce	!	!	!	!	!LO:TX:a:B:t=Allegro feroce	!	!	!
[>\2.DD [<2.DDD\	4r	.	f	4r	.	4r	.	.	.
!	!	!	!	!LO:TX:t=P:problem=problem z łukami między systemami	!	!	!	!	!LO:DY:b:rj
.	(>8AA\L	1	.	N(>8A/L	4	4r	.	.	f
.	8D\	2	<	8d/J	2	.	.	.	.
!	!	!	!	!	!	!	!	!	!LO:HP:b
.	8F#\	3	.	4r	.	8f#/L	.	2	<
.	8G#\J	4	.	.	.	8g#/J	.	3	.
*	*	*	*	*	*	*	*v	*v	*
=59	=59	=59	=59	=59	=59	=59	=59	=59
2.DD\_> 2.DDD\_<	8A\L	1	.	2.r	.	8a\L	1	.
.	8d\	2	.	.	.	8dd\	2	.
.	8f#\	3	.	.	.	8ff#\	3	.
.	8g#\J	4	.	.	.	8gg#\J	4	.
.	4a^>\)	5	[	.	.	4aa^>\N)	5	[
!!LO:LB:g=original
=60	=60	=60	=60	=60	=60	=60	=60	=60
2.DD\_> 2.DDD\_<	(>8g#\L	.	ff	2.r	.	N(>8gg#\L	.	.
!	!	!	!	!	!	!	!	!LO:DY:b
.	8a\	.	.	.	.	8aa\	.	ff
.	8g#\	.	.	.	.	8gg#\	.	.
.	8f#\	.	.	.	.	8ff#\	.	.
.	8e\	.	.	.	.	8ee\	.	.
.	8A\J	.	.	.	.	8a\J	.	.
=61	=61	=61	=61	=61	=61	=61	=61	=61
2.DD\] 2.DDD\]	8G#\L	.	.	4r	.	8g#/L	.	.
.	8A\	.	.	.	.	8a/	.	.
.	8G#\	.	.	4r	.	8g#/	.	.
.	8F#\	.	.	.	.	8f#/J	.	.
.	8E\	.	.	8e/L	.	4r	.	.
.	8AA\J)	.	.	8A/JN)	.	.	.	.
=62	=62	=62	=62	=62	=62	=62	=62	=62
!	!	!	!	!	!	!	!	!LO:DY:b:t=sf.
2.AAA^\	(>8E\L 8C#\	.	<	2.c#^>/	.	2.e^>/	.	sf
.	8BB\	.	.	.	.	.	.	.
.	8D\	.	.	.	.	.	.	.
.	8C#\	.	.	.	.	.	.	.
.	8BB\	.	[ >	.	.	.	.	.
.	8C#\J)	.	]]	.	.	.	.	.
=63	=63	=63	=63	=63	=63	=63	=63	=63
[>2.DD\ [<2.DDD\	4BB^<M>/	.	.	4r	.	4r	.	.
!	!	!	!	!	!	!	!	!LO:DY:b:rj
.	(>8AA\L	.	.	N(>8A/L	.	4r	.	f
.	8D\	.	.	8d/J	.	.	.	.
.	8F#\	.	.	4r	.	8f#/L	.	<
.	8G#\J	.	.	.	.	8g#/J	.	.
*	*clefG2	*	*	*	*	*	*	*
=64	=64	=64	=64	=64	=64	=64	=64	=64
2.DD\_> 2.DDD\_<	8A/L	.	.	2.r	.	8a\L	.	.
.	8d/	.	.	.	.	8dd\	.	.
.	8f#/	.	.	.	.	8ff#\	.	.
.	8g#/J	.	.	.	.	8gg#\J	.	.
.	4a^>/)	.	.	.	.	4aa^>\N)	.	[
=65	=65	=65	=65	=65	=65	=65	=65	=65
2.DD\_> 2.DDD\_<	(>8g#/L	.	.	2.r	.	N(>8gg#\L	.	.
!	!	!	!	!	!	!	!	!LO:DY:b:rj
.	8a/	.	.	.	.	8aa\	.	ff
.	8g#/	.	.	.	.	8gg#\	.	.
.	8f#/	.	.	.	.	8ff#\	.	.
.	8e/	.	.	.	.	8ee\	.	.
.	8A/J	.	.	.	.	8a\J	.	.
*	*clefF4	*	*	*	*	*	*	*
!!LO:LB:g=original
=66	=66	=66	=66	=66	=66	=66	=66	=66
2.DD\] 2.DDD\]	8G#\L	.	.	4r	.	8g#/L	.	.
.	8A\	.	.	.	.	8a/	.	.
.	8G#\	.	.	4r	.	8g#/	.	.
.	8F#\	.	.	.	.	8f#/J	.	.
.	8E\	.	.	8e/L	.	4r	.	.
.	8AA\J)	.	.	8A/JN)	.	.	.	.
=67	=67	=67	=67	=67	=67	=67	=67	=67
*	*	*	*	*2\right	*	*2\right	*	*
!	!	!	!LO:HP:b	!	!	!LO:SIC:s=2.ee\ 2.e^\	!	!LO:DY:a
2.AAA\	(>8E\L 8C#\	.	<	2.c#^>\	.	2.ee\ 2.e\	.	sf
.	8BB\	.	.	.	.	.	.	.
.	8D\	.	.	.	.	.	.	.
.	8C#\	.	[	.	.	.	.	.
.	8BB\	.	.	.	.	.	.	.
.	8AA\J)	.	.	.	.	.	.	.
=68	=68	=68	=68	=68	=68	=68	=68	=68
!	!LO:TX:a:i:t=risoluto.:mod=risoluto	!	!	!	!	!LO:TX:b:i:t=Con forza:mod=risoluto	!	!
!	!LO:SIC:s=4F#:/ 4D:/ 4AA:/	!	!LO:DY:b	!	!	!LO:TX:a:i:t=Risoluto:mod=con forza	!	!
4DD\	4F#\ 4D\ 4AA\	.	f	(>8.d/L	.	(8.dd\L	.	.
.	.	.	.	16f#/Jk	.	16ff#\Jk	.	.
4DD\	4F#\ 4D\ 4AA\	.	.	4g#/	.	4gg#\	.	.
4DD^>\	4F#\ 4AA^>\	.	.	4a^>/	.	4aa^\	.	.
=69	=69	=69	=69	=69	=69	=69	=69	=69
4DD\	4E\ 4AA\	.	.	8g#/L	.	8gg#\L	.	.
.	.	.	.	8a/	.	8aa\	.	.
4DD\	4E\ 4AA\	.	.	8g#/	.	8gg#\	.	.
.	.	.	.	8f#/J	.	8ff#\J	.	.
4DD 4DDD^>\	4A\ 4Gn\ 4AA^>\	.	.	4e^>/)	.	4ee^\)	.	.
=70	=70	=70	=70	=70	=70	=70	=70	=70
!	!	!	!	!	!	!	!	!LO:DY:b
4DD\	4A\ 4F#\ 4AA\	.	.	(>8.d/L	.	(8.dd\L	.	f
.	.	.	.	16f#/Jk	.	16ff#\Jk	.	.
4DD\	4F#\ 4AA\	.	.	4g#/	.	4gg#\	.	.
4DD^>\	4F#\ 4AA^>\	.	.	4a^>/	.	4aa^>\	.	.
=71	=71	=71	=71	=71	=71	=71	=71	=71
4DD\	4E\ 4AA\	.	.	8g#/L	.	8gg#\L	.	.
.	.	.	.	8a/	.	8aa\	.	.
4DD\	4E\ 4AA\	.	.	8g#/	.	8gg#\	.	.
.	.	.	.	8f#/J	.	8ff#\J	.	.
4DD\ 4DDD^>\	4A\ 4Gn\ 4AA^>\	.	.	4e^>/)	.	4ee^>\)	.	.
!!LO:PB:g=original
=72	=72	=72	=72	=72	=72	=72	=72	=72
!	!	!	!	!LO:SIC:s=(8.d/L	!	!	!	!
4DD'>\	(>4A\ 4F#\ 4AA'>\	.	.	8.d/L	.	(>8.dd\L	.	.
.	.	.	.	16f#/Jk	.	16ff#\Jk	.	.
4DD'>\	4F#\ 4AA'>\	.	.	4g#/	.	4gg#\	.	.
!LO:SIC:s=4DD^>\	!	!	!	!LO:SIC:s=4a^/	!	!LO:SIC:s=4aa^\	!	!
4DD'^>\	4F#\ 4AA^>\	.	.	4a/	.	4aa\	.	.
=73	=73	=73	=73	=73	=73	=73	=73	=73
4DD\	4E\ 4C#\ 4AA'>\	.	.	4e/	.	4ee\	.	.
!	!LO:TX:b:i:t=rit:mod=	!	!	!	!	!	!	!
4DD\ 4DDD\	4A\ 4Gn\ 4AA'>\	.	.	8f#/L	.	8ff#\L	.	.
!	!	!	!	!	!	!LO:MO:mod=!LO&colon;TX&colon;a&colon;i&colon;t=rit.	!	!
!	!LO:TX:a:i:t= :mod=rit.	!	!	!	!	!LO:TX:b:i:t=rit	!	!
.	.	.	.	8c#/J	.	8cc#\J	.	.
!	!	!	!	!LO:SIC:s=4d/)	!	!	!	!
4DD\	4A\ 4F#\ 4AA\)	.	.	4d/	.	4dd\)	.	.
=74	=74	=74	=74	=74	=74	=74	=74	=74
*	*	*	*	*	*	*2\left	*	*
!	!LO:TX:b:i:t=leggiero.:mod=leggiero	!	!	!	!	!LO:MO:mod=!LO&colon;TX&colon;a&colon;B&colon;t=Un poco più lento	!	!LO:DY:a
!	!LO:MO:mod=!LO&colon;TX&colon;a&colon;B&colon;t=Un poco più lento	!	!	!	!	!	!	!
!	!LO:TX:a:i:t=Un poco piu lento.	!	!	!	!	!LO:TX:b:i:t=un poco piu lento.	!	!LO:HP:b=2
2.BBB\	(>4B\ 4F#\ 4D'>\	.	.	(>8.d/L	.	(>2.ff#\	.	mf<[[
.	.	.	.	16f#/Jk	.	.	.	.
.	4B\ 4F#\ 4D'>\	.	.	4g#/	.	.	.	.
!	!	!	!	!LO:SIC:s=4a^/	!	!	!	!
.	4F#\ 4D'>\	.	.	4a/	.	.	.	.
=75	=75	=75	=75	=75	=75	=75	=75	=75
2.EE\	4G#\ 4E\ 4BB'>\	.	.	8g#/L	.	4ee\	.	.
!	!	!	!	!	!	!	!	!LO:HP:b=2
.	.	.	.	8a/	.	.	.	>
.	4G#\ 4E\ 4BB'>\	.	.	8g#/	.	2b\	.	.
.	.	.	.	8f#/J	.	.	.	.
!	!	!	!	!LO:SIC:s=4e^/)	!	!	!	!
.	4B\ 4G#\ 4D'>\)	.	.	4e/)	.	.	.	]
=76	=76	=76	=76	=76	=76	=76	=76	=76
!	!	!	!	!	!	!	!	!LO:HP:b=2
2.BBB\	(>4B\ 4F#\ 4D'>\	.	.	(>8.d/L	.	2.dd\	.	<[
.	.	.	.	16f#/Jk	.	.	.	.
.	4B\ 4F#\ 4D'>\	.	.	4g#/	.	.	.	.
!	!	!	!	!LO:SIC:s=4a^/	!	!	!	!
.	4B\ 4F#\ 4D'>\	.	.	4a/	.	.	.	.
=77	=77	=77	=77	=77	=77	=77	=77	=77
2EE\	4B\ 4F#\ 4D'>\	.	.	8g#/L	.	4b\)	.	.
.	.	.	.	8a/	.	.	.	.
!	!	!	!	!	!	!	!	!LO:HP:b=2
.	4B\ 4G#\ 4E\ 4D\	.	.	8g#/	.	(>4b\	.	>
.	.	.	.	8f#/J	.	.	.	.
!	!	!	!	!	!	!LO:SIC:s=4cc#^\)	!	!
4AAA^>\	4c#\ 4A\ 4E\ 4C#^>\)	.	.	4e^>/)	.	4cc#\	.	]]
!!LO:LB:g=original
=78	=78	=78	=78	=78	=78	=78	=78	=78
!	!	!	!	!	!	!LO:TX:t=P:problem=brak zakończenia łuku	!	!
(>2EE\	(>4B\ 4G#\ 4D\	.	.	(<8g#/L	.	4b\)	.	.
.	.	.	.	8a/	.	.	.	.
!	!LO:TX:b:i:t=strin-gen-do.:dur=6q:ext=ud:problem=text with extention lines	!	!	!	!	!LO:TX:b:i:t=strin-gen-do.:dur=6q:ext=ud:problem=text with extention lines	!	!
.	4B\ 4G#\ 4D\	.	.	8g#/	.	(>4b\	.	.
.	.	.	.	8f#/J	.	.	.	.
4AAA\)	4c#\ 4A\ 4C#^>\)	.	.	4e^>/)	.	4cc#^>\)	.	.
=79	=79	=79	=79	=79	=79	=79	=79	=79
(>2EE\	(>4B\ 4G#\ 4D\	.	.	(<8g#/L	.	4b\	.	.
.	.	.	.	8a/	.	.	.	.
.	4B\ 4G#\ 4D\	.	.	8g#/	.	(>4b\	.	.
.	.	.	.	8f#/J	.	.	.	.
4AAA\)	4c#\ 4A\ 4C#^>\)	.	.	4e^>/)	.	4cc#^<\)	.	.
=80	=80	=80	=80	=80	=80	=80	=80	=80
(>2FF#\	(>4c#\ 4A#X\ 4E\	.	.	(<8a#X/L	.	4cc#\	.	.
.	.	.	.	8b/	.	.	.	.
.	4c#\ 4A#\ 4E\	.	.	8a#/	.	(>4cc#\	.	.
.	.	.	.	8g#/J	.	.	.	.
4BBB\)	4d\ 4B\ 4D\)	.	.	4f#^>/)	.	4dd^<\)	.	.
=81	=81	=81	=81	=81	=81	=81	=81	=81
!	!LO:TX:a:i:t= :mod=rall.	!	!	!	!	!LO:MO:mod=!LO&colon;TX&colon;a&colon;i&colon;t=rall.	!	!
!	!	!	!	!LO:SIC:s=(8a#X/L	!	!LO:TX:b:i:t=rallentan.	!	!
(>2FF#\	(>4c#\ 4A#X\ 4E\	.	.	8a#X/L	.	4cc#\	.	.
.	.	.	.	8b/	.	.	.	.
!	!LO:TX:a:i:t=rallent.:mod=	!	!	!	!	!	!	!
.	4c#\ 4A#\ 4E\	.	.	8a#/	.	(>4cc#\	.	.
.	.	.	.	8g#/J	.	.	.	.
!	!	!	!	!LO:SIC:s=4f#/)	!	!	!	!
4BBB\)	4d\ 4B\ 4D\)	.	.	4f#/	.	4dd^>\)	.	.
=82	=82	=82	=82	=82	=82	=82	=82	=82
*ped	*	*	*	*ped	*	*	*	*
!LO:TX:t=P:problem=ped oznaczone jako "pedale."	!	!	!LO:DY:b:t=p.	!LO:TX:t=P:problem=ped zapisane jako "Pedale."	!	!	!	!LO:DY:b:t=mf.
2.EE^>\	4d\ 4G#\	.	p	[>/2.g# [<2.f#/	.	[>2.dd\	.	mf
*	*2\right	*	*	*	*	*	*	*
.	2B^>\	.	.	.	.	.	.	.
=83	=83	=83	=83	=83	=83	=83	=83	=83
2.EE^>\	4r	.	.	2.g#/] 2.f#/]	.	2.dd\]	.	.
*	*2\left	*	*	*	*	*	*	*
.	2B^>\	.	.	.	.	.	.	.
!!LO:LB:g=original
=84	=84	=84	=84	=84 	=84	=84	=84	=84
*	*	*	*	*	*	*	*	*
!	!	!	!	!LO:TX:b:i:t=due pedale:mod=due Pedale	!	!	!	!LO:DY:b:t=p.
!	!	!	!	!	!	!	!	!LO:HP:b
2EE\	4r	.	.	2g#/ 2f#/	.	2dd\	.	p >
.	4B^>\	.	.	.	.	.	.	.
!	!LO:MO:mod=!LO&colon;TX&colon;a&colon;i&colon;t=poco ritard.	!	!	!	!	!LO:MO:mod=!LO&colon;TX&colon;a&colon;i&colon;t=poco ritard.	!	!
!	!LO:TX:b:i:t=poco ritar.	!	!	!	!	!LO:TX:b:i:t=poco ritardan.	!	!
[>4EE\	4r	.	.	[>4g#/ [<4f#/	.	[>4dd\	.	]
=85	=85	=85	=85	=85	=85	=85	=85	=85
4EE\]	4B^>\	.	.	4g#/] 4f#/]	.	4dd\]	.	.
2EE\;>	4r	.	.	2g#/ 2f#;>/	.	2dd;>\	.	pp
.	4B;>\	.	.	.	.	.	.	.
=86	=86	=86	=86	=86	=86	=86	=86	=86
*	*	*	*	*	*	*	*	*
!	!	!	!LO:HP:b	!LO:TX:b:i:t=con pedale.:mod=con Pedale	!	!	!	!
!LO:TX:b:i:t=con ped.:mod=con Pedale	!LO:TX:a:B:t=Allegro molto.:mod=Allegro molto	!	!LO:DY:b:t=f.	!	!	!LO:TX:a:B:t=Allegro molto.:mod=Allegro molto	!	!
4r	2B\ 2G#\ 2E\	.	f <	(>8e/L	.	(>8ee\L	.	f
.	.	.	.	8f#/J	.	8ff#\J	.	<
4EE\ 4AAA^>\	.	.	.	4g#/	.	4gg#\	.	.
4r	4B\ 4G#\ 4E\	.	.	4e^>/	.	4ee^>\	.	.
=87	=87	=87	=87	=87	=87	=87	=87	=87
4r	2c#\ 2A\ 2E\	.	.	8a/L	.	8aa\L	.	.
.	.	.	.	8b/J	.	8bb\J	.	.
4EE\ 4AAA^>\	.	.	.	4cc#\	.	4ccc#\	.	.
4r	4d\ 4A\ 4F#\	.	[	4dd^>\)	.	4ddd^>\)	.	[
=88	=88	=88	=88	=88	=88	=88	=88	=88
*	*2\right	*	*	*	*	*	*	*
4r	2B\ 2F#\ 2D\	.	.	(>4b\	.	(>4bb\	.	.
!	!	!	!	!	!	!	!	!LO:DY:b
4EE\ 4AAA^>\	.	.	.	2f#/)	.	2ff#\)	.	sf
4r	4B\ 4F#\ 4BB\	.	.	.	.	.	.	.
=89	=89	=89	=89	=89	=89	=89	=89	=89
*	*2\left	*	*	*	*	*	*	*
4r	2B\ 2E\ 2BB\	.	.	(>4g#/	.	(>4gg#\	.	.
!	!	!	!	!	!	!	!	!LO:DY:b
4EE\ 4AAA^>\	.	.	.	2e/)	.	2ee\)	.	sf
4r	4B\ 4G#\ 4E\	.	.	.	.	.	.	.
!!LO:LB:g=original
=90	=90	=90	=90	=90	=90	=90	=90	=90
!	!	!	!LO:HP:b	!	!	!	!	!LO:HP:b
4r	2c#\ 2A\ 2E\	.	<	(>8a\L	.	(>8aa\L	.	<
.	.	.	.	8b\J	.	8bb\J	.	.
4EE\ 4AAA^>\	.	.	.	4cc#\	.	4ccc#\	.	.
4r	4d\ 4A\ 4F#\	.	.	4dd\	.	4ddd\	.	[[
=91	=91	=91	=91	=91	=91	=91	=91	=91
4r	2B\ 2F#\ 2D\	.	[	4b\	.	4bb\	.	.
4EE\ 4AAA^>\	.	.	.	2f#^>/	.	2ff#^>\	.	.
4r	4B\ 4F#\ 4BB\	.	.	.	.	.	.	.
=92	=92	=92	=92	=92	=92	=92	=92	=92
4r	2B\ 2E\ 2BB\	.	.	4g#/	.	4gg#\	.	.
!	!	!	!	!	!	!	!	!LO:HP:b
4EE\ 4AAA^>\	.	.	.	2e^>/)	.	2ee^>\)	.	<
4r	4B\ 4G#\ 4E\	.	.	.	.	.	.	.
=93	=93	=93	=93	=93	=93	=93	=93	=93
*	*2\right	*	*	*	*	*	*	*
4r	2c#\ 2A\ 2E\	.	.	(>8a\L	.	(>8aa\L	.	.
.	.	.	.	8b\J	.	8bb\J	.	.
4EE\ 4AAA^>\	.	.	ff	4cc#\	.	4ccc#\	.	.
4r	4f#\ 4c#\ 4A\	.	.	4ff#^>\	.	4fff#^\	.	[
=94	=94	=94	=94	=94	=94	=94	=94	=94
!	!	!	!	!	!	!	!	!LO:DY:b:rj:t=ff.
4r	2f#\ 2B\ 2A\	.	.	8ee\L	.	8eee\L	.	ff
.	.	.	.	8dd#X\J	.	8ddd#X\J	.	.
4EE\ 4AAA^>\	.	.	.	4b\	.	4bb\	.	.
4r	4f#\ 4B\ 4A\	.	.	4cc#^>\	.	4ccc#^>\	.	.
=95	=95	=95	=95	=95	=95	=95	=95	=95
*	*2\left	*	*	*	*	*	*	*
!	!	!	!	!	!	!	!	!LO:HP:b
4r	2e\ 2B\ 2G#\	.	.	2ddn^>\	.	2dddn^>\	.	>
4EE\ 4AAA^>\	.	.	.	.	.	.	.	.
4r	4e\ 4d\ 4G#\ 4E^>\	.	.	8cc#\L	.	8ccc#\L	.	.
.	.	.	.	8b\J)	.	8bb\J)	.	]]
!!LO:LB:g=original
=96	=96	=96	=96	=96	=96	=96	=96	=96
*	*2\right	*	*	*	*	*	*	*
!	!	!	!	!	!	!	!	!LO:HP:b
4r	2e\ 2c#\ 2A\ 2E\	.	.	(>8a\L	.	(>8aa\L	.	<
.	.	.	.	8b\J	.	8bb\J	.	.
4EE 4AAA^>\	.	.	.	4cc#\	.	4ccc#\	.	.
4r	4f#\ 4c#\ 4A\	.	.	4ff#^>\	.	4fff#^\	.	[[
=97	=97	=97	=97	=97	=97	=97	=97	=97
!	!	!	!LO:HP:b	!	!	!	!	!LO:DY:b
4r	2f#\ 2B\ 2A\	.	>	8ee\L	.	8eee\L	.	ff
.	.	.	.	8dd#X\J	.	8ddd#X\J	.	.
4EE 4AAA^>\	.	.	.	4b\	.	4bb\	.	.
4r	4f#\ 4B\ 4A\	.	.	4cc#^>\	.	4ccc#^>\	.	.
=98	=98	=98	=98	=98	=98	=98	=98	=98
*	*	*	*	*2\left	*	*	*	*
!	!	!	!	!	!	!	!	!LO:HP:b
4r	2e\ 2B\ 2G#\	.	.	2ddn^>\	.	2dddn^>\	.	>
4EE 4AAA^>\	.	.	.	.	.	.	.	.
4r	4e\ 4d\ 4G#\ 4E\	.	]]	8cc#\L	.	8ccc#\L	.	.
.	.	.	.	8b\J)	.	8bb\J)	.	]]
=99	=99	=99	=99	=99	=99	=99	=99	=99
!	!	!	!	!	!	!	!	!LO:MO:mod=!LO&colon;HP&colon;b&colon;t=molto dim.
!	!LO:TX:a:i:t= :mod=[rall.]	!	!	!	!	!LO:TX:a:i:t= :mod=rall.	!	!LO:HP:b:i:t=molto diminuendo e rall.
[>2.EE [<2.AAA\	4e\ 4c#\ 4A\ 4E\	.	.	(<4a/	.	(>4aa\	.	>
*	*2\left	*	*	*	*	*	*	*
!	!	!	!LO:DY:b:t=p.	!	!	!	!	!
.	[>2e\ [<2E^>\	.	p	4dd\	.	4ff#\	.	.
.	.	.	.	4g#/	.	4gg#\	.	.
=100	=100	=100	=100	=100	=100	=100	=100	=100
!	!	!	!LO:HP:b	!	!	!	!	!
2.EE] 2.AAA\]	2.e\] 2.E\]	.	>	4a/	.	4ee\ 4cc#\	.	.
.	.	.	.	4f#/	.	4aa\ 4a\	.	.
.	.	.	.	4b\	.	4ff#\ 4dd\	.	.
=101	=101	=101	=101	=101	=101	=101	=101	=101
[>2.AAA\	[>2.E/ [<2.EE^>/	.	]	4e/	.	4gg#\ 4g#\	.	.
.	.	.	.	4a/	.	4ee\ 4cc#\	.	.
.	.	.	.	4f#/)	.	4aa\ 4a\	.	.
!!LO:LB:g=original
=102	=102	=102	=102	=102	=102	=102	=102	=102
!LO:TX:t=P:problem:ligatura zakończona dołem	!	!	!	!	!	!	!	!LO:HP:b
2.AAA\_<	2.E_> 2.EE/_<	.	.	(>4b\	.	4ff#\ 4dd\	.	>
.	.	.	.	4e/	.	4gg#\ 4g#\	.	.
.	.	.	.	4a/	.	4ee\ 4cc#\	.	.
=103	=103	=103	=103	=103	=103	=103	=103	=103
2.AAA\]	2.E] 2.EE/]	.	.	4f#/	.	4aa\ 4a\	.	]
.	.	.	.	4b/	.	4ff#\ 4dd\	.	.
.	.	.	.	4e/)	.	4gg#\ 4g#\)	.	.
=104	=104	=104	=104	=104	=104	=104	=104	=104
2.r;>	2.r;>	.	.	2.r;>	.	2.r;>	.	.
=105	=105	=105	=105	=105	=105	=105	=105	=105
*	*clefG2	*	*	*	*	*	*	*
!	!LO:TX:a:B:t=Allegro molto.:mod=Allegro molto	!	!LO:DY:b:rj	!	!	!LO:TX:a:B:t=Allegro molto.:mod=Allegro molto	!	!
4BB\	4b/ 4B/	.	ff	2.r	.	2.r	.	.
!LO:MO:mod=2FF#^<\	!LO:MO:mod=2f#/^> 2F#</	!	!	!	!	!	!	!
2FF#\	2f#/^> 2F#</	.	.	.	.	.	.	.
=106	=106	=106	=106	=106	=106	=106	=106	=106
*	*	*	*^	*	*	*	*	*
*	*clefF4	*	*	*	*	*	*	*	*
!	!	!	!	!	!	!	!	!	!LO:DY:b:rj
4EE\	4e\ 4d\ 4G#\ 4E\	.	.	.	4ee\ 4dd\ 4b\	.	4eee\ 4gg#\	.	ff
!	!	!	!LO:DY:a:t=sf.	!	!LO:SIC:s=2ee\ 2cc#\ 2a^\	!	!	!	!LO:DY:b:t=sf.
2AA\ 2AAA\	2e\ 2c#\ 2A\ 2E\	.	sf	sf	2ee\ 2cc#\ 2a\	.	2aaa\ 2ccc#\ 2aa^>\	.	sf
*	*	*	*v	*v	*	*	*	*	*
==	==	==	==	==	==	==	==	==
*-	*-	*-	*-	*-	*-	*-	*-	*-
!!!system-decoration: {(g1)}{(g2)}
!!!RDF**kern: > = above
!!!RDF**kern: < = below
!!!RDF**kern: N = linked
!!!ENC: Andrzej Kubiczek
!!!END: 2021-11-09
!!!ENC: Jędrzej Mróz
!!!END: 2021-11-23
!!!ENC-modern: Katarzyna Serwa
!!!END-modern: 2022-09-08
!!!YEC: Copyright 2022 Narodowy Instytut Fryderyka Chopina (https://polishscores.org)
!!!YEM: Licence CC BY 4.0 (https://creativecommons.org/licenses/by/4.0)
!!!filter-modern: sic -sq | shed -e "s/LO:DY:(a|b|rj)/LO:dy:$1/L" | autostem -r | tie -s | shed -k -e "s/([^a-gA-Gn#X-])[<>]/$1/g" | shed -e "s/TX(.*):t=P:/tx$1:t=P:/LG" | shed -e "s/^(\d+[\/\\]right)/$1yy/I; s/^(\d+[\/\\]left)/$1yy/I" | shed -e "s/yy//" | modori -m
